32x32/apps/org.xfce.tumbler.svg

<svg xmlns="http://www.w3.org/2000/svg" width="32" height="32" version="1.1">
 <rect style="opacity:0.2" width="20" height="24" x="4" y="3" rx="2.5" ry="2.4"/>
 <rect style="fill:#cecece" width="20" height="24" x="4" y="2" rx="2.5" ry="2.4"/>
 <path style="opacity:0.1;fill:#f4f4f7" d="M 6.5 2 C 5.115 2 4 3.0707906 4 4.4003906 L 4 5.4003906 C 4 4.0707906 5.115 3 6.5 3 L 21.5 3 C 22.885 3 24 4.0707906 24 5.4003906 L 24 4.4003906 C 24 3.0707906 22.885 2 21.5 2 L 6.5 2 z"/>
 <rect style="opacity:0.2" width="20" height="24" x="6" y="5" rx="2.5" ry="2.4"/>
 <rect style="fill:#dadada" width="20" height="24" x="6" y="4" rx="2.5" ry="2.4"/>
 <path style="opacity:0.1;fill:#f4f4f7" d="M 8.5 4 C 7.115 4 6 5.0707906 6 6.4003906 L 6 7.4003906 C 6 6.0707906 7.115 5 8.5 5 L 23.5 5 C 24.885 5 26 6.0707906 26 7.4003906 L 26 6.4003906 C 26 5.0707906 24.885 4 23.5 4 L 8.5 4 z"/>
 <rect style="opacity:0.2" width="20" height="24" x="8" y="7" rx="2.5" ry="2.4"/>
 <rect style="fill:#f4f4f7" width="20" height="24" x="8" y="6" rx="2.5" ry="2.4"/>
 <path style="fill:#ffc450" d="M 10 8 L 10 23 L 26 23 C 10.000001 23 10 8 10 8 z"/>
 <path style="fill:#30a3db" d="M 9.9999995,7.9999997 H 25.999998 V 22.999999 C 9.9999995,22.999999 9.9999995,7.9999997 9.9999995,7.9999997 Z"/>
 <path style="opacity:0.2;fill:#f4f4f7" d="M 10.5 6 C 9.115 6 8 7.0707906 8 8.4003906 L 8 9.4003906 C 8 8.0707906 9.115 7 10.5 7 L 25.5 7 C 26.885 7 28 8.0707906 28 9.4003906 L 28 8.4003906 C 28 7.0707906 26.885 6 25.5 6 L 10.5 6 z"/>
 <rect style="opacity:0.1" width="16" height="1" x="10" y="8"/>
</svg>

<svg xmlns="http://www.w3.org/2000/svg" width="32" height="32"><rect style="opacity:.2" width="20" height="24" x="4" y="3" rx="2.5" ry="2.4"/><rect style="fill:#cecece" width="20" height="24" x="4" y="2" rx="2.5" ry="2.4"/><path style="opacity:.1;fill:#f4f4f7" d="M6.5 2C5.115 2 4 3.07 4 4.4v1C4 4.07 5.115 3 6.5 3h15C22.885 3 24 4.07 24 5.4v-1C24 3.07 22.885 2 21.5 2h-15z"/><rect style="opacity:.2" width="20" height="24" x="6" y="5" rx="2.5" ry="2.4"/><rect style="fill:#dadada" width="20" height="24" x="6" y="4" rx="2.5" ry="2.4"/><path style="opacity:.1;fill:#f4f4f7" d="M8.5 4C7.115 4 6 5.07 6 6.4v1C6 6.07 7.115 5 8.5 5h15C24.885 5 26 6.07 26 7.4v-1C26 5.07 24.885 4 23.5 4h-15z"/><rect style="opacity:.2" width="20" height="24" x="8" y="7" rx="2.5" ry="2.4"/><rect style="fill:#f4f4f7" width="20" height="24" x="8" y="6" rx="2.5" ry="2.4"/><path style="fill:#ffc450" d="M10 8v15h16C10 23 10 8 10 8z"/><path style="fill:#30a3db" d="M10 8h16v15C10 23 10 8 10 8z"/><path style="opacity:.2;fill:#f4f4f7" d="M10.5 6C9.115 6 8 7.07 8 8.4v1C8 8.07 9.115 7 10.5 7h15C26.885 7 28 8.07 28 9.4v-1C28 7.07 26.885 6 25.5 6h-15z"/><path style="opacity:.1" d="M10 8h16v1H10z"/></svg>
